X:1
T:Come Sing, 76.76 D
T:Come Sing, 76.76 D
T:Thomas Lawrence Forbes, 1889
T:Public Domain Courtesy of the Cyber Hymnal™
C:Thomas Lawrence Forbes, 1889
Z:Public Domain
Z:Courtesy of the Cyber Hymnal™
%%score ( 1 2 ) ( 3 4 )
L:1/8
Q:1/4=115
M:none
K:A
V:1 treble 
V:2 treble 
V:3 bass 
V:4 bass 
V:1
 [CE]2 | [CA]3 [CA] [EB]2 [Ec]2 | d4 [Ec]2 [EA]2 | [FB]2 [FB]2 [Ec]2 [Ed]2 | [Ec]6 [Ec]2 | %5
 [Fc]2 [FB]2 [EB]2 [Ec]2 | A4 [EG]2 E2 | [EF]2 [EA]2 [EG]2 [^DF]2 | E6 E2 | F2 A2 d3 c | B4 A2 E2 | %11
 [DF]2 [CA]2 [Fd]2 [Fc]2 | [DB]6 [EB]2 | [Ec]2 [EB]2 [FA]2 [EG]2 | F4 [B,E]2 [B,E]2 | [EA]4 [Dd]4 | %16
 B6 [DB]2 | [CA]6 |] %18
V:2
 x2 | x8 | (D2 E2) x4 | x8 | x8 | x8 | (E2 ^D2) E2 x2 | x8 | E6 E2 | F2 A2 d3 c | B4 A2 E2 | x8 | %12
 x8 | x8 | (D2 C2) x4 | x8 | (E2 B,2 C2) x2 | x6 |] %18
V:3
 [A,C]2 | [F,A,]3 [F,A,] [E,G,]2 A,2 | ([F,A,]2 [G,B,]2) A,2 [C,A,]2 | %3
 [D,A,]2 [D,A,]2 [E,A,]2 [E,G,]2 | A,6 [A,C]2 | [A,^D]2 [A,D]2 [G,E]2 A,2 | %6
 (C2 A,2) [E,B,]2 [G,B,]2 | [A,C]2 [F,C]2 B,2 [B,,A,]2 | [E,G,]6 E,2 | F,2 A,2 D3 C | %10
 B,4 A,2 [C,A,]2 | [D,A,]2 [F,A,]2 [B,,B,]2 [F,^A,]2 | B,6 [G,B,]2 | A,2 [G,B,]2 [F,C]2 [C,C]2 | %14
 [D,A,]4 [E,G,]2 [D,G,]2 | [C,A,]4 [F,A,]4 | [E,A,]6 [E,G,]2 | [A,,A,]6 |] %18
V:4
 x2 | x6 A,2 | x4 A,2 x2 | x8 | A,6 x2 | x6 A,2 | F,4 x4 | x4 B,2 x2 | x6 E,2 | F,2 A,2 D3 C | %10
 B,4 A,2 x2 | x8 | B,6 x2 | A,2 x6 | x8 | x8 | x8 | x6 |] %18

